X:1
T:Title
%%score { ( 1 3 ) | ( 2 4 ) }
L:1/8
Q:1/4=100
M:4/4
K:Bb
V:1 treble nm="Grand Piano"
V:3 treble 
V:2 bass 
V:4 bass 
V:1
 [DF]>[CE] [B,D]>[CE] [DF]2 [DB]2 | [Fd]>[Ec] [DB]>[EG] [DF]4 | E>D C>D E2 F2 | A>G F>E D4 | %4
w: Robert~Lowry * * * * *||||
 [DF]>[CE] [B,D]>[CE] [DF]2 [DB]2 | [GB]>[FA] [EG]>[DF] [EG]4 | [Ec]>[GB] [FA]>G F>F B>c | %7
w: |||
 B2 A2 [DB]4 | [Fc]4 z4 | [GB]4 z4 | [GB]4 z4 | [Fc]4 z4 | [Fc]4 z4 | [GB]4 [=EG]4 | %14
w: |||||||
 [CFA]2 [DFB]2 [CFA]2 [B,=EG]2 | z4 z2 E2 | %16
w: ||
 [B,DF]>[K:bass][F,CE] [F,B,D]>[F,CE][K:treble] [F,DF]2 [DB]2 | [Fd]>[Ec] [DB]>[EG] [DF]4 | %18
w: ||
 E>D C>D E2 F2 | A>G F>E D4 | [DF]>[CE] [B,D]>[CE] [DF]2 [DB]2 | [GB]>[FA] [EG]>[DF] [EG]4 | %22
w: ||||
 [Ec]>[GB] [FA]>G F>F B>c |[M:8/4] B2 A2 [DB]4 z8 |] %24
w: ||
V:2
 [B,,B,]>[B,,F,] [B,,F,]>[B,,F,] [B,,F,]2 [B,,F,]2 | [B,,B,]>[B,,B,] [B,,B,]>[B,,B,] [B,,B,]4 | %2
 [F,C]>[F,B,] [F,A,]>[F,B,] [F,C]2 [F,D]2 | [F,F]>[F,E] [F,D]>[F,C] [B,,F,B,]4 | %4
 [B,,F,]>[B,,F,] [B,,F,]>[B,,F,] [B,,F,]2 [B,,F,]2 | [B,,B,]>[B,,B,] [B,,B,]>[B,,B,] [E,B,]4 | %6
 [E,G,]>[E,B,] [E,B,]>[E,B,E] [F,B,D]>[F,B,D] [F,DF]>[F,EF] | [F,DF]2 [F,CE]2 [B,,B,]4 | %8
 [F,A,]>F, F,>F, F,2 F,2 | C,>C, C,>C, C,4 | C,>C, C,>C, C,2 [C,B,]2 | [F,A,]>F, F,>F, E,4 | %12
 [F,A,]>F, F,>F, F,2 F,2 | C,>C, C,>C, C,2 C,2 | F,2 B,,2 C,2 C,2 | F,8 | %16
 B,,>B,, B,,>B,, B,,2 [B,,F,]2 | [B,,B,]>[B,,B,] [B,,B,]>[B,,B,] [B,,B,]4 | %18
 [F,C]>[F,B,] [F,A,]>[F,B,] [F,C]2 [F,D]2 | [F,F]>[F,E] [F,D]>[F,C] [B,,F,B,]4 | %20
 [B,,F,]>[B,,F,] [B,,F,]>[B,,F,] [B,,F,]2 [B,,F,]2 | [B,,B,]>[B,,B,] [B,,B,]>[B,,B,] [E,B,]4 | %22
 [E,G,]>[E,B,] [E,B,]>[E,B,E] [F,B,D]>[F,B,D] [F,DF]>[F,EF] |[M:8/4] [F,DF]2 [F,CE]2 [B,,B,]4 z8 |] %24
V:3
 x8 | x8 | x8 | x8 | x8 | x8 | x8 | x8 | z z/ A,/ A,>A, [CFA]2 [CAc]2 | C>C C>C [C=EG]4 | %10
 C>C C>C [C=EG]2 [Ed]2 | z z/ A,/ A,>A, [CFA]4 | z z/ A,/ A,>A, [CFA]2 [CAc]2 | C>C C>C C2 C2 | %14
 x8 | [A,F]8 | x3/2[K:bass] x5/2[K:treble] x4 | x8 | x8 | x8 | x8 | x8 | x8 |[M:8/4] x16 |] %24
V:4
 x8 | x8 | x8 | x8 | x8 | x8 | x8 | x8 | x8 | x8 | x8 | x8 | x8 | x8 | x8 | z2 E,2 D,2 C,2 | x8 | %17
 x8 | x8 | x8 | x8 | x8 | x8 |[M:8/4] x16 |] %24

